public/section-block-right.svg

<svg width="195" height="373" viewBox="0 0 195 373" fill="none" xmlns="http://www.w3.org/2000/svg">
<mask id="mask0_9_78495" style="mask-type:luminance" maskUnits="userSpaceOnUse" x="0" y="239" width="195" height="135">
<path d="M195 239.078H0V373.003H195V239.078Z" fill="white"/>
</mask>
<g mask="url(#mask0_9_78495)">
<path d="M189.567 313.179L63.3292 252.641L26.3305 330.249L26.3653 330.266C25.6279 331.592 25.7485 333.271 26.9633 335.046L66.3318 392.615C68.8799 396.341 75.1502 399.033 80.3352 398.628L147.208 393.413C149.884 393.205 151.727 392.205 152.556 390.782L152.568 390.789L189.567 313.179Z" fill="url(#paint0_linear_9_78495)"/>
<path d="M103.315 315.039L63.9516 257.47C61.4034 253.744 63.542 250.396 68.727 249.992L135.6 244.778C140.782 244.378 147.06 247.064 149.604 250.791L188.972 308.36C191.52 312.086 189.382 315.434 184.197 315.838L117.322 321.052C112.132 321.457 105.868 318.766 103.315 315.039Z" fill="url(#paint1_linear_9_78495)"/>
<path d="M185.31 313.49L118.437 318.704C113.255 319.104 106.976 316.416 104.434 312.692L65.0636 255.122C64.3483 254.164 63.9898 252.985 64.0501 251.789C62.6061 253.198 62.4337 255.258 63.9505 257.469L103.319 315.038C105.867 318.764 112.135 321.456 117.321 321.051L184.197 315.837C187.738 315.56 189.808 313.898 189.986 311.693C188.682 312.818 187.029 313.453 185.31 313.49Z" fill="url(#paint2_linear_9_78495)"/>
</g>
<path d="M99.8426 114.23L22.4668 147.113L42.5651 194.688L42.5851 194.678C42.7821 195.152 43.1122 195.558 43.5352 195.848C43.9581 196.137 44.4558 196.297 44.9678 196.309L86.455 201.445C89.1387 201.777 92.8408 200.018 94.7263 197.519L118.99 165.266C119.412 164.808 119.719 164.254 119.883 163.652C120.048 163.05 120.066 162.417 119.936 161.807H119.944L99.8426 114.23Z" fill="#F9CF2D"/>
<path d="M66.3631 153.893L24.8759 148.758C22.1902 148.426 21.5395 146.13 23.4219 143.629L47.6848 111.376C49.5673 108.878 53.2655 107.119 55.9562 107.45L97.4414 112.587C100.127 112.918 100.778 115.215 98.8973 117.716L74.6344 149.967C72.752 152.467 69.0538 154.225 66.3631 153.893Z" fill="#FFE06A"/>
<path d="M98.289 116.276L74.0261 148.528C72.1436 151.027 68.4454 152.788 65.7547 152.454L24.2676 147.32C23.5529 147.261 22.8814 146.953 22.3691 146.45C22.4269 147.663 23.283 148.559 24.8764 148.756L66.3636 153.891C69.0493 154.223 72.7505 152.465 74.635 149.965L98.8988 117.714C100.183 116.005 100.262 114.409 99.3433 113.453C99.3285 114.488 98.9559 115.486 98.289 116.276Z" fill="white"/>
<path d="M149.275 31.6005L110.136 0.539062L91.1546 24.5992L91.1645 24.6072C90.9741 24.8452 90.8568 25.1335 90.8269 25.4372C90.797 25.7408 90.8558 26.0466 90.9961 26.3173L100.152 49.461C100.585 50.3018 101.208 51.0291 101.972 51.5845C102.736 52.14 103.619 52.5081 104.55 52.6593L128.221 56.1464C128.58 56.2365 128.955 56.2387 129.315 56.153C129.675 56.0672 130.009 55.896 130.289 55.6537L149.275 31.6005Z" fill="url(#paint3_linear_9_78495)"/>
<path d="M119.128 25.4123L109.972 2.2686C109.374 0.769396 110.386 -0.230069 112.221 0.0457834L135.894 3.53292C136.825 3.6841 137.708 4.05223 138.471 4.6077C139.234 5.16316 139.857 5.89048 140.29 6.73123L149.447 29.8749C150.045 31.3741 149.032 32.3675 147.198 32.0977L123.524 28.6165C122.592 28.4647 121.709 28.0957 120.946 27.5392C120.182 26.9826 119.56 26.2541 119.128 25.4123Z" fill="url(#paint4_linear_9_78495)"/>
<path d="M147.77 31.3732L124.1 27.8851C123.169 27.7334 122.286 27.365 121.523 26.8096C120.76 26.2542 120.137 25.5272 119.704 24.6868L110.547 1.54013C110.373 1.15031 110.341 0.71184 110.456 0.300781C110.141 0.505268 109.915 0.822722 109.826 1.18829C109.736 1.55386 109.789 1.93997 109.974 2.26773L119.13 25.4114C119.562 26.2521 120.185 26.9795 120.949 27.5349C121.712 28.0904 122.595 28.4585 123.526 28.6097L147.199 32.0968C148.451 32.2827 149.304 31.8679 149.539 31.1143C148.997 31.4046 148.371 31.4961 147.77 31.3732Z" fill="white"/>
<defs>
<linearGradient id="paint0_linear_9_78495" x1="286.617" y1="288.125" x2="480.226" y2="288.125" gradientUnits="userSpaceOnUse">
<stop stop-color="#5E98F7"/>
<stop offset="1" stop-color="#4670BA"/>
</linearGradient>
<linearGradient id="paint1_linear_9_78495" x1="91.8717" y1="254.053" x2="298.969" y2="452.875" gradientUnits="userSpaceOnUse">
<stop stop-color="#93BBFE"/>
<stop offset="1" stop-color="#4670BA"/>
</linearGradient>
<linearGradient id="paint2_linear_9_78495" x1="126.437" y1="251.789" x2="126.437" y2="321.091" gradientUnits="userSpaceOnUse">
<stop stop-color="#5E98F7"/>
<stop offset="1" stop-color="#4670BA"/>
</linearGradient>
<linearGradient id="paint3_linear_9_78495" x1="128.173" y1="39.3456" x2="178.094" y2="39.3456" gradientUnits="userSpaceOnUse">
<stop stop-color="#5E98F7"/>
<stop offset="1" stop-color="#4670BA"/>
</linearGradient>
<linearGradient id="paint4_linear_9_78495" x1="131.103" y1="-16.5209" x2="168.755" y2="70.8127" gradientUnits="userSpaceOnUse">
<stop stop-color="#91BBFF"/>
<stop offset="1" stop-color="#4670BA"/>
</linearGradient>
</defs>
</svg>

<svg xmlns="http://www.w3.org/2000/svg" width="195" height="373" fill="none" viewBox="0 0 195 373"><mask id="a" width="195" height="135" x="0" y="239" maskUnits="userSpaceOnUse" style="mask-type:luminance"><path fill="#fff" d="M195 239.078H0v133.925h195z"/></mask><g mask="url(#a)"><path fill="url(#b)" d="M189.567 313.179 63.329 252.641l-36.998 77.608.034.017c-.737 1.326-.616 3.005.598 4.78l39.369 57.569c2.548 3.726 8.818 6.418 14.003 6.013l66.873-5.215c2.676-.208 4.519-1.208 5.348-2.631l.012.007z"/><path fill="url(#c)" d="M103.315 315.039 63.952 257.47c-2.549-3.726-.41-7.074 4.775-7.478l66.873-5.214c5.182-.4 11.46 2.286 14.004 6.013l39.368 57.569c2.548 3.726.41 7.074-4.775 7.478l-66.875 5.214c-5.19.405-11.454-2.286-14.007-6.013"/><path fill="url(#d)" d="m185.31 313.49-66.873 5.214c-5.182.4-11.461-2.288-14.003-6.012l-39.37-57.57a5.14 5.14 0 0 1-1.014-3.333c-1.444 1.409-1.616 3.469-.1 5.68l39.369 57.569c2.548 3.726 8.816 6.418 14.002 6.013l66.876-5.214c3.541-.277 5.611-1.939 5.789-4.144a7.4 7.4 0 0 1-4.676 1.797"/></g><path fill="#f9cf2d" d="m99.843 114.23-77.376 32.883 20.098 47.575.02-.01a2.65 2.65 0 0 0 2.383 1.631l41.487 5.136c2.684.332 6.386-1.427 8.271-3.926l24.264-32.253a3.903 3.903 0 0 0 .946-3.459h.008z"/><path fill="#ffe06a" d="m66.363 153.893-41.487-5.135c-2.686-.332-3.337-2.628-1.454-5.129l24.263-32.253c1.882-2.498 5.58-4.257 8.271-3.926l41.485 5.137c2.686.331 3.337 2.628 1.456 5.129l-24.263 32.251c-1.882 2.5-5.58 4.258-8.27 3.926"/><path fill="#fff" d="m98.289 116.276-24.263 32.252c-1.882 2.499-5.58 4.26-8.271 3.926l-41.487-5.134a3.07 3.07 0 0 1-1.899-.87c.058 1.213.914 2.109 2.507 2.306l41.488 5.135c2.685.332 6.386-1.426 8.271-3.926l24.264-32.251c1.284-1.709 1.363-3.305.444-4.261a4.48 4.48 0 0 1-1.054 2.823"/><path fill="url(#e)" d="M149.275 31.6 110.136.54 91.155 24.6l.01.007a1.58 1.58 0 0 0-.169 1.71l9.156 23.144a6.05 6.05 0 0 0 4.398 3.198l23.671 3.487a2.3 2.3 0 0 0 2.068-.492z"/><path fill="url(#f)" d="M119.128 25.412 109.972 2.27c-.598-1.5.414-2.5 2.249-2.223l23.673 3.487c.931.151 1.814.52 2.577 1.075a6.06 6.06 0 0 1 1.819 2.123l9.157 23.144c.598 1.5-.415 2.492-2.249 2.223l-23.674-3.482a6.044 6.044 0 0 1-4.396-3.204"/><path fill="#fff" d="m147.77 31.373-23.67-3.488a6 6 0 0 1-2.577-1.075 6.06 6.06 0 0 1-1.819-2.123L110.547 1.54a1.83 1.83 0 0 1-.091-1.24 1.478 1.478 0 0 0-.482 1.967l9.156 23.144a6.04 6.04 0 0 0 4.396 3.199l23.673 3.487c1.252.186 2.105-.23 2.34-.983a2.63 2.63 0 0 1-1.769.26"/><defs><linearGradient id="b" x1="286.617" x2="480.226" y1="288.125" y2="288.125" gradientUnits="userSpaceOnUse"><stop stop-color="#5e98f7"/><stop offset="1" stop-color="#4670ba"/></linearGradient><linearGradient id="c" x1="91.872" x2="298.969" y1="254.053" y2="452.875" gradientUnits="userSpaceOnUse"><stop stop-color="#93bbfe"/><stop offset="1" stop-color="#4670ba"/></linearGradient><linearGradient id="d" x1="126.437" x2="126.437" y1="251.789" y2="321.091" gradientUnits="userSpaceOnUse"><stop stop-color="#5e98f7"/><stop offset="1" stop-color="#4670ba"/></linearGradient><linearGradient id="e" x1="128.173" x2="178.094" y1="39.346" y2="39.346" gradientUnits="userSpaceOnUse"><stop stop-color="#5e98f7"/><stop offset="1" stop-color="#4670ba"/></linearGradient><linearGradient id="f" x1="131.103" x2="168.755" y1="-16.521" y2="70.813" gradientUnits="userSpaceOnUse"><stop stop-color="#91bbff"/><stop offset="1" stop-color="#4670ba"/></linearGradient></defs></svg>
